svgs/thin/film-canister.svg

<svg xmlns="http://www.w3.org/2000/svg" viewBox="0 0 576 512"><!--! Font Awesome Pro 6.6.0 by @fontawesome - https://fontawesome.com License - https://fontawesome.com/license (Commercial License) Copyright 2024 Fonticons, Inc. --><path d="M104 40l0 8 144 0 0-8c0-13.3-10.7-24-24-24l-96 0c-13.3 0-24 10.7-24 24zM88 48l0-8c0-22.1 17.9-40 40-40l96 0c22.1 0 40 17.9 40 40l0 8 48 0 32 0c4.4 0 8 3.6 8 8s-3.6 8-8 8l-24 0 0 432 24 0c4.4 0 8 3.6 8 8s-3.6 8-8 8l-32 0L40 512 8 512c-4.4 0-8-3.6-8-8s3.6-8 8-8l24 0L32 64 8 64c-4.4 0-8-3.6-8-8s3.6-8 8-8l32 0 48 0zm0 16L48 64l0 432 256 0 0-432-40 0-16 0L104 64 88 64zM408 176c13.3 0 24 10.7 24 24l0 16c0 13.3-10.7 24-24 24l-16 0c-13.3 0-24-10.7-24-24l0-16c0-13.3 10.7-24 24-24l16 0zm-24 24l0 16c0 4.4 3.6 8 8 8l16 0c4.4 0 8-3.6 8-8l0-16c0-4.4-3.6-8-8-8l-16 0c-4.4 0-8 3.6-8 8zm8 136l16 0c13.3 0 24 10.7 24 24l0 16c0 13.3-10.7 24-24 24l-16 0c-13.3 0-24-10.7-24-24l0-16c0-13.3 10.7-24 24-24zm0 16c-4.4 0-8 3.6-8 8l0 16c0 4.4 3.6 8 8 8l16 0c4.4 0 8-3.6 8-8l0-16c0-4.4-3.6-8-8-8l-16 0zM504 176c13.3 0 24 10.7 24 24l0 16c0 13.3-10.7 24-24 24l-16 0c-13.3 0-24-10.7-24-24l0-16c0-13.3 10.7-24 24-24l16 0zm-24 24l0 16c0 4.4 3.6 8 8 8l16 0c4.4 0 8-3.6 8-8l0-16c0-4.4-3.6-8-8-8l-16 0c-4.4 0-8 3.6-8 8zm56-56l-184 0 0-16 184 0c22.1 0 40 17.9 40 40l0 136c0 22.1-17.9 40-40 40c-13.3 0-24 10.7-24 24l0 40c0 22.1-17.9 40-40 40l-120 0 0-16 120 0c13.3 0 24-10.7 24-24l0-40c0-22.1 17.9-40 40-40c13.3 0 24-10.7 24-24l0-136c0-13.3-10.7-24-24-24z"/></svg>

<svg xmlns="http://www.w3.org/2000/svg" viewBox="0 0 576 512"><!--! Font Awesome Pro 6.5.2 by @fontawesome - https://fontawesome.com License - https://fontawesome.com/license (Commercial License) Copyright 2024 Fonticons, Inc. --><path d="M104 40v8H248V40c0-13.3-10.7-24-24-24H128c-13.3 0-24 10.7-24 24zM88 48V40c0-22.1 17.9-40 40-40h96c22.1 0 40 17.9 40 40v8h48 32c4.4 0 8 3.6 8 8s-3.6 8-8 8H320V496h24c4.4 0 8 3.6 8 8s-3.6 8-8 8H312 40 8c-4.4 0-8-3.6-8-8s3.6-8 8-8H32V64H8c-4.4 0-8-3.6-8-8s3.6-8 8-8H40 88zm0 16H48V496H304V64H264 248 104 88zM408 176c13.3 0 24 10.7 24 24v16c0 13.3-10.7 24-24 24H392c-13.3 0-24-10.7-24-24V200c0-13.3 10.7-24 24-24h16zm-24 24v16c0 4.4 3.6 8 8 8h16c4.4 0 8-3.6 8-8V200c0-4.4-3.6-8-8-8H392c-4.4 0-8 3.6-8 8zm8 136h16c13.3 0 24 10.7 24 24v16c0 13.3-10.7 24-24 24H392c-13.3 0-24-10.7-24-24V360c0-13.3 10.7-24 24-24zm0 16c-4.4 0-8 3.6-8 8v16c0 4.4 3.6 8 8 8h16c4.4 0 8-3.6 8-8V360c0-4.4-3.6-8-8-8H392zM504 176c13.3 0 24 10.7 24 24v16c0 13.3-10.7 24-24 24H488c-13.3 0-24-10.7-24-24V200c0-13.3 10.7-24 24-24h16zm-24 24v16c0 4.4 3.6 8 8 8h16c4.4 0 8-3.6 8-8V200c0-4.4-3.6-8-8-8H488c-4.4 0-8 3.6-8 8zm56-56H352V128H536c22.1 0 40 17.9 40 40V304c0 22.1-17.9 40-40 40c-13.3 0-24 10.7-24 24v40c0 22.1-17.9 40-40 40H352V432H472c13.3 0 24-10.7 24-24V368c0-22.1 17.9-40 40-40c13.3 0 24-10.7 24-24V168c0-13.3-10.7-24-24-24z"/></svg>
